X:164
T:Merlin's Cave. JJo2.164
Z:vmp.Robert Watkins 2014 www.village-music-project.org.uk
B:J.Johnson Choice Collection Vol 2 after c1750
M:C
L:1/8
Q:1/4=104
W:to be playd through.
K:Eb
EF|G2F2E2DC|B,2B2B3B|(cd)(ec) (BG)(FE)|(EF)(GA)F3B|
efgec3B|(cd)(eE)F3G|(Ac)(ec)B2(E-F)|G2F2F3g|(fe)(cB)e2(EF)|G2F2E2|]

